Codeartpro/images/main/logo-4.svg

<svg width="224" height="50" viewBox="0 0 224 50" fill="none" xmlns="http://www.w3.org/2000/svg">
<path opacity="0.6" d="M87.7798 9.82659H86.3119C79.3297 9.55202 76.6483 13.4104 76.6238 21.6763C76.5847 31.5511 82.1578 39.841 88.9541 39.8844H93.0642L94.8257 31.7919H92.1835C90.7857 31.9559 89.3686 31.7566 88.0734 31.2139C91.748 28.4827 95.7798 24.3834 95.7064 17.9191C95.7798 16.3825 96.1028 9.70135 87.7798 9.82659ZM83.9633 25.4335C83.6382 24.3023 83.4413 23.1392 83.3762 21.9653C83.4691 19.1137 84.6336 17.6493 86.8991 17.6301C87.5743 17.6493 88.8465 17.6493 88.9541 19.0751C88.8465 21.7004 85.3774 24.5279 83.9633 25.4335ZM180.55 10.4046H170.275V50H177.028V40.4624C185.395 38.0877 189.431 29.9904 189.358 21.6763C189.426 15.896 187.342 10.3854 180.55 10.4046ZM177.028 31.7919V18.2081H179.083C180.198 18.3382 182.459 18.3382 182.605 22.2543C182.493 26.7726 180.301 31.3102 177.028 31.7919ZM7.92661 16.474C7.88746 8.96917 11.9927 8.96917 13.5046 8.95954H19.3761L17.6147 2.29986e-06H11.7431C3.07278 -0.00481466 0.137003 7.55781 0 15.6069C0.137003 28.4345 6.93333 39.8459 16.7339 39.8844H17.9083L19.6697 30.9249C12.2373 31.4547 7.88746 24.5279 7.92661 16.474ZM28.1835 12.4277V10.6936H21.7248V40.1734H28.4771V21.6763C29.4214 19.4027 31.1193 18.5742 32.8807 18.4971V10.1156C31.085 10.0915 29.5242 10.6744 28.1835 12.4277ZM36.1101 10.4046H43.156V39.8844H36.1101V10.4046ZM36.1101 2.29986e-06H43.156V7.80347H36.1101V2.29986e-06ZM67.2294 10.4046H46.9725V39.8844H53.4312V18.2081H57.5413V39.8844H64.2936V18.2081H65.1743C68.1248 18.4345 68.159 19.263 68.1101 23.1214V39.8844H74.8624V21.6763C74.8477 13.8969 73.0079 10.3854 67.2294 10.4046ZM106.569 20.8092C106.417 20.289 106.065 19.7495 105.982 19.0751C106.065 18.2852 106.559 18.0925 108.037 18.2081H110.972L109.211 10.4046H103.633C99.0581 10.3854 97.9229 15.1156 98.055 17.052C97.9229 19.7977 98.8771 21.7967 100.11 23.6994L102.752 28.9017C103.158 29.4557 103.834 30.4769 103.927 31.2139C103.834 32.4277 101.994 31.8931 101.578 31.7919H97.7615L99.5229 39.8844H106.275C109.642 39.8459 111.687 36.3825 111.56 32.659C111.687 30.0434 110.767 27.8468 109.505 26.0116L106.569 20.8092ZM120.954 29.1908V18.2081H124.477V10.4046H120.954V1.73411L114.202 4.62428V10.4046H112.734V18.2081H114.202V30.9249C114.182 37.9432 116.908 39.8459 120.661 39.8844H123.596L125.358 31.7919H122.716C121.297 31.7967 120.979 30.6744 120.954 29.1908ZM137.982 9.82659H134.752C126.067 9.70135 126.136 19.3112 126.239 20.8092C126.136 30.1397 129.962 40.7225 136.22 40.7514C142.767 40.7225 146.588 30.1397 146.495 20.8092C146.588 19.3112 146.662 9.70135 137.982 9.82659ZM136.22 31.7919C135.124 31.8931 133.074 27.8468 132.991 21.6763C133.074 18.8247 134.278 17.6541 136.22 17.6301C138.451 17.6493 139.655 18.8247 139.743 21.6763C139.655 27.8468 137.6 31.8979 136.22 31.7919ZM159.706 10.4046H149.431V50H156.183V40.4624C164.526 38.0877 168.558 29.9904 168.514 21.6763C168.558 15.896 166.468 10.3854 159.706 10.4046ZM156.183 31.7919V18.2081H158.239C159.325 18.3382 161.59 18.3382 161.761 22.2543C161.624 26.7726 159.428 31.3102 156.183 31.7919ZM219.009 12.1387V10.4046H212.55V39.8844H219.303V21.3873C220.36 19.0655 222.062 18.237 224 18.2081V9.82659C222.023 9.74952 220.467 10.3372 219.009 12.1387ZM201.982 9.82659H200.514C193.551 9.55202 190.87 13.4104 190.826 21.6763C190.801 31.5511 196.379 39.841 203.156 39.8844H207.266L209.028 31.7919H206.385C204.988 31.9535 203.571 31.7543 202.275 31.2139C205.969 28.4827 210.001 24.3834 209.908 17.9191C210.001 16.3825 210.319 9.70135 201.982 9.82659ZM198.165 25.4335C197.854 24.2992 197.658 23.1376 197.578 21.9653C197.686 19.1137 198.855 17.6493 201.101 17.6301C201.796 17.6493 203.068 17.6493 203.156 19.0751C203.063 21.7004 199.599 24.5279 198.165 25.4335Z" fill="white"/>
</svg>

<svg width="224" height="50" fill="none" xmlns="http://www.w3.org/2000/svg"><path opacity=".6" d="M87.78 9.827h-1.468c-6.982-.275-9.664 3.583-9.688 11.85-.04 9.874 5.534 18.164 12.33 18.207h4.11l1.762-8.092h-2.642a8.175 8.175 0 01-4.11-.578c3.674-2.731 7.706-6.83 7.632-13.295.074-1.537.397-8.218-7.926-8.092zm-3.817 15.606a15.703 15.703 0 01-.587-3.468c.093-2.851 1.258-4.316 3.523-4.335.675.02 1.948.02 2.055 1.445-.107 2.625-3.577 5.453-4.99 6.358zm96.587-15.028h-10.275V50h6.753v-9.538c8.367-2.374 12.403-10.472 12.33-18.786.068-5.78-2.016-11.29-8.808-11.271zm-3.522 21.387V18.208h2.055c1.115.13 3.376.13 3.522 4.046-.112 4.519-2.304 9.056-5.577 9.538zM7.927 16.474c-.04-7.505 4.066-7.505 5.578-7.514h5.871L17.615 0h-5.872C3.073-.005.137 7.558 0 15.607c.137 12.828 6.933 24.239 16.734 24.277h1.174l1.762-8.96c-7.433.53-11.783-6.396-11.743-14.45zm20.256-4.046v-1.734h-6.458v29.48h6.752V21.675c.944-2.273 2.642-3.102 4.404-3.179v-8.381c-1.796-.024-3.357.558-4.698 2.312zm7.927-2.023h7.046v29.48H36.11v-29.48zM36.11 0h7.046v7.803H36.11V0zm31.12 10.405H46.971v29.48h6.46V18.207h4.11v21.676h6.752V18.208h.88c2.95.227 2.985 1.055 2.936 4.913v16.763h6.752V21.676c-.014-7.78-1.854-11.29-7.633-11.271zm39.339 10.404c-.152-.52-.504-1.06-.587-1.734.083-.79.577-.982 2.055-.867h2.935l-1.761-7.803h-5.578c-4.575-.02-5.71 4.71-5.578 6.647-.132 2.746.822 4.745 2.055 6.647l2.642 5.203c.406.554 1.082 1.575 1.175 2.312-.093 1.214-1.933.68-2.349.578h-3.817l1.762 8.092h6.752c3.367-.038 5.412-3.502 5.285-7.225.127-2.616-.793-4.812-2.055-6.647l-2.936-5.203zm14.385 8.382V18.208h3.523v-7.803h-3.523v-8.67l-6.752 2.89v5.78h-1.468v7.803h1.468v12.717c-.02 7.018 2.706 8.92 6.459 8.96h2.935l1.762-8.093h-2.642c-1.419.005-1.737-1.118-1.762-2.601zm17.028-19.364h-3.23c-8.685-.126-8.616 9.484-8.513 10.982-.103 9.33 3.723 19.913 9.981 19.942 6.547-.029 10.368-10.611 10.275-19.942.093-1.498.167-11.108-8.513-10.982zm-1.762 21.965c-1.096.101-3.146-3.945-3.229-10.116.083-2.851 1.287-4.022 3.229-4.046 2.231.02 3.435 1.195 3.523 4.046-.088 6.17-2.143 10.222-3.523 10.116zm23.486-21.387h-10.275V50h6.752v-9.538c8.343-2.374 12.375-10.472 12.331-18.786.044-5.78-2.046-11.29-8.808-11.271zm-3.523 21.387V18.208h2.056c1.086.13 3.351.13 3.522 4.046-.137 4.519-2.333 9.056-5.578 9.538zm62.826-19.653v-1.734h-6.459v29.48h6.753V21.386c1.057-2.322 2.759-3.15 4.697-3.179v-8.38c-1.977-.077-3.533.51-4.991 2.312zm-17.027-2.312h-1.468c-6.963-.275-9.644 3.583-9.688 11.85-.025 9.874 5.553 18.164 12.33 18.207h4.11l1.762-8.092h-2.643a8.23 8.23 0 01-4.11-.578c3.694-2.731 7.726-6.83 7.633-13.295.093-1.537.411-8.218-7.926-8.092zm-3.817 15.606a17.662 17.662 0 01-.587-3.468c.108-2.851 1.277-4.316 3.523-4.335.695.02 1.967.02 2.055 1.445-.093 2.625-3.557 5.453-4.991 6.358z" fill="#fff"/></svg>
